!!!OTL: WIR FAHREN AUF DER GRUENEN SEE
!!!ARE: Europa, Mitteleuropa, Deutschland, Kassel
!!!SCT: K2169A
!!!YEM: Copyright 1995, estate of Helmut Schaffrath.
**kern
*ICvox
*Ivox
*M2/4
*k[]
*C:
{8g
=1
8g
8g
8g
8g
=2
8g
8ee
4cc}
=3
{8.dd
16cc
8b
8a
=4
4a
8g}
{8g
=5
8g
8g
8g
8g
=6
8g
8ee
4cc}
=7
{8.dd
16cc
8b
8a
=8
4a
4g}
=9
{8g
8e
8g
8e
=10
8g
8ee
8cc}
{8cc
=11
4b
8a
8b
=12
4cc
8g}
{8g
=13
8e
8g
8f
8e
=14
4d
8r}
==
!!!AGN: Kinder - Lied, Reigen, Tanz - Spiel
!!!ONB: ESAC (Essen Associative Code) Database: KINDER
!!!AMT: simple duple
!!!AIN: vox
!!!EED: Helmut Schaffrath
!!!EEV: 1.0
*-
